dist/img/clients/client_4.svg

<svg width="120" height="43" viewBox="0 0 120 43" fill="none" xmlns="http://www.w3.org/2000/svg">
<g clip-path="url(#clip0_2986_18204)">
<path d="M24.5195 24.5638C23.9329 25.2245 23.1674 25.6929 22.3199 25.9099C21.4724 26.1269 20.5808 26.0827 19.7579 25.7829C18.935 25.483 18.2177 24.9411 17.6966 24.2254C17.1755 23.5098 16.874 22.6526 16.8303 21.7622C16.7865 20.8719 17.0024 19.9882 17.4507 19.223C17.899 18.4577 18.5596 17.8452 19.3489 17.4629C20.1383 17.0806 21.021 16.9456 21.8856 17.075C22.7501 17.2043 23.5577 17.5923 24.2062 18.1897C24.6382 18.5865 24.989 19.0665 25.2387 19.602C25.4883 20.1375 25.6318 20.7181 25.661 21.3103C25.6901 21.9026 25.6042 22.4949 25.4083 23.0532C25.2125 23.6116 24.9104 24.1249 24.5195 24.5638Z" fill="url(#paint0_radial_2986_18204)"/>
<path d="M24.5195 24.5638C23.9329 25.2245 23.1674 25.6929 22.3199 25.9099C21.4724 26.1269 20.5808 26.0827 19.7579 25.7829C18.935 25.483 18.2177 24.9411 17.6966 24.2254C17.1755 23.5098 16.874 22.6526 16.8303 21.7622C16.7865 20.8719 17.0024 19.9882 17.4507 19.223C17.899 18.4577 18.5596 17.8452 19.3489 17.4629C20.1383 17.0806 21.021 16.9456 21.8856 17.075C22.7501 17.2043 23.5577 17.5923 24.2062 18.1897C24.6382 18.5865 24.989 19.0665 25.2387 19.602C25.4883 20.1375 25.6318 20.7181 25.661 21.3103C25.6901 21.9026 25.6042 22.4949 25.4083 23.0532C25.2125 23.6116 24.9104 24.1249 24.5195 24.5638Z" fill="#1D1D1D"/>
<path d="M22.398 6.08768C22.7636 6.46066 23.1096 6.84031 23.4164 7.21996C24.484 8.51941 25.3634 9.96838 26.0276 11.5226C27.0754 11.722 28.1421 11.798 29.2068 11.7491H29.3962H29.5659C32.4745 11.4779 35.1892 10.1439 37.2103 7.99257L37.478 7.71283C37.0732 7.21996 36.662 6.7404 36.2115 6.28083C32.6161 2.62549 27.8516 0.412149 22.7886 0.045275C17.7257 -0.321599 12.7024 1.18249 8.63672 4.28269C15.0996 1.07234 19.5844 3.28362 22.398 6.08768Z" fill="url(#paint1_linear_2986_18204)"/>
<path d="M22.398 6.08768C22.7636 6.46066 23.1096 6.84031 23.4164 7.21996C24.484 8.51941 25.3634 9.96838 26.0276 11.5226C27.0754 11.722 28.1421 11.798 29.2068 11.7491H29.3962H29.5659C32.4745 11.4779 35.1892 10.1439 37.2103 7.99257L37.478 7.71283C37.0732 7.21996 36.662 6.7404 36.2115 6.28083C32.6161 2.62549 27.8516 0.412149 22.7886 0.045275C17.7257 -0.321599 12.7024 1.18249 8.63672 4.28269C15.0996 1.07234 19.5844 3.28362 22.398 6.08768Z" fill="#323232"/>
<path d="M7.4356 27.974C7.56616 27.4611 7.71631 26.9682 7.87951 26.5087C8.45194 24.9172 9.24323 23.4169 10.2296 22.0528C9.87654 21.0283 9.40771 20.0493 8.83262 19.1355L8.72817 18.969L8.63025 18.8291C6.95528 16.4183 4.48849 14.7003 1.67779 13.987L1.30569 13.8737C1.09026 14.4732 0.894419 15.0793 0.724688 15.7054C-0.583306 20.7082 -0.0835736 26.0241 2.13259 30.682C4.34876 35.34 8.13343 39.029 12.7952 41.0751C6.82196 36.9456 6.44985 31.857 7.4356 27.974Z" fill="url(#paint2_linear_2986_18204)"/>
<path d="M7.4356 27.974C7.56616 27.4611 7.71631 26.9682 7.87951 26.5087C8.45194 24.9172 9.24323 23.4169 10.2296 22.0528C9.87654 21.0283 9.40771 20.0493 8.83262 19.1355L8.72817 18.969L8.63025 18.8291C6.95528 16.4183 4.48849 14.7003 1.67779 13.987L1.30569 13.8737C1.09026 14.4732 0.894419 15.0793 0.724688 15.7054C-0.583306 20.7082 -0.0835736 26.0241 2.13259 30.682C4.34876 35.34 8.13343 39.029 12.7952 41.0751C6.82196 36.9456 6.44985 31.857 7.4356 27.974Z" fill="#323232"/>
<path d="M33.5547 30.2852C33.052 30.425 32.5559 30.5383 32.0793 30.6248C30.4429 30.9139 28.7745 30.9632 27.1245 30.7714C26.434 31.5867 25.8382 32.4807 25.3488 33.4356C25.3488 33.4955 25.2901 33.5488 25.264 33.6087C25.2373 33.6607 25.2134 33.7141 25.1921 33.7686C23.9707 36.455 23.7389 39.5006 24.5393 42.3473C24.5393 42.4738 24.6111 42.6004 24.6503 42.7269C25.264 42.6137 25.8841 42.4938 26.4978 42.3273C31.3895 40.9768 35.6434 37.8793 38.4853 33.5984C41.3272 29.3176 42.5682 24.138 41.9825 19.0023C41.4602 26.3488 37.3279 29.2128 33.5547 30.2852Z" fill="url(#paint3_linear_2986_18204)"/>
<path d="M33.5547 30.2852C33.052 30.425 32.5559 30.5383 32.0793 30.6248C30.4429 30.9139 28.7745 30.9632 27.1245 30.7714C26.434 31.5867 25.8382 32.4807 25.3488 33.4356C25.3488 33.4955 25.2901 33.5488 25.264 33.6087C25.2373 33.6607 25.2134 33.7141 25.1921 33.7686C23.9707 36.455 23.7389 39.5006 24.5393 42.3473C24.5393 42.4738 24.6111 42.6004 24.6503 42.7269C25.264 42.6137 25.8841 42.4938 26.4978 42.3273C31.3895 40.9768 35.6434 37.8793 38.4853 33.5984C41.3272 29.3176 42.5682 24.138 41.9825 19.0023C41.4602 26.3488 37.3279 29.2128 33.5547 30.2852Z" fill="#323232"/>
<path d="M8.60405 4.28269C5.50915 6.48887 3.08966 9.54395 1.62549 13.0945C3.80247 13.5635 5.81921 14.6114 7.47125 16.132C9.12329 17.6526 10.3519 19.5918 11.0325 21.7531C11.6135 21.3735 13.4022 19.9281 14.6034 15.9585C16.0592 11.1563 18.814 7.61293 22.398 6.0677C22.398 6.08768 17.8609 -0.499526 8.60405 4.28269Z" fill="url(#paint4_linear_2986_18204)"/>
<path d="M8.60405 4.28269C5.50915 6.48887 3.08966 9.54395 1.62549 13.0945C3.80247 13.5635 5.81921 14.6114 7.47125 16.132C9.12329 17.6526 10.3519 19.5918 11.0325 21.7531C11.6135 21.3735 13.4022 19.9281 14.6034 15.9585C16.0592 11.1563 18.814 7.61293 22.398 6.0677C22.398 6.08768 17.8609 -0.499526 8.60405 4.28269Z" fill="#1D1D1D"/>
<path d="M23.1357 38.8572C23.1331 35.6392 24.3142 32.5374 26.4454 30.1653L26.4781 30.1186C26.0407 29.6457 24.5196 28.4868 20.6028 29.3926C15.8307 30.5049 10.5299 30.3784 7.43553 27.974C7.43553 27.974 4.10618 35.3005 12.7951 41.0618C16.2098 42.6939 20.0078 43.3058 23.7493 42.8268C23.3327 41.5469 23.1253 40.2058 23.1357 38.8572Z" fill="url(#paint5_linear_2986_18204)"/>
<path d="M23.1357 38.8572C23.1331 35.6392 24.3142 32.5374 26.4454 30.1653L26.4781 30.1186C26.0407 29.6457 24.5196 28.4868 20.6028 29.3926C15.8307 30.5049 10.5299 30.3784 7.43553 27.974C7.43553 27.974 4.10618 35.3005 12.7951 41.0618C16.2098 42.6939 20.0078 43.3058 23.7493 42.8268C23.3327 41.5469 23.1253 40.2058 23.1357 38.8572Z" fill="#1D1D1D"/>
<path d="M37.9936 8.43216C36.8247 9.78757 35.3868 10.8739 33.7751 11.6192C32.1634 12.3644 30.4148 12.7515 28.6453 12.7548C27.7129 12.7514 26.7833 12.651 25.8709 12.4551H25.8252C25.6424 13.1211 25.4988 15.0194 28.1426 17.9233C31.4916 21.6132 34.018 26.3555 33.5545 30.2918C33.5545 30.2918 41.3882 29.5792 41.9823 19.009C41.6588 15.1697 40.2758 11.5025 37.9936 8.43216Z" fill="url(#paint6_linear_2986_18204)"/>
<path d="M37.9936 8.43216C36.8247 9.78757 35.3868 10.8739 33.7751 11.6192C32.1634 12.3644 30.4148 12.7515 28.6453 12.7548C27.7129 12.7514 26.7833 12.651 25.8709 12.4551H25.8252C25.6424 13.1211 25.4988 15.0194 28.1426 17.9233C31.4916 21.6132 34.018 26.3555 33.5545 30.2918C33.5545 30.2918 41.3882 29.5792 41.9823 19.009C41.6588 15.1697 40.2758 11.5025 37.9936 8.43216Z" fill="#1D1D1D"/>
<path d="M51.7288 27.0016H49.5288V16.538H53.0605C55.6718 16.538 57.2646 17.6303 57.2646 20.0347C57.2646 22.4391 55.5934 23.7313 52.8777 23.7313H51.7288V27.0016ZM51.6831 21.7531H52.8777C54.1834 21.7531 54.9863 21.2336 54.9863 20.128C54.9863 19.0223 54.2486 18.5161 52.8777 18.5161H51.6831V21.7531Z" fill="#1D1D1D"/>
<path d="M58.864 21.7731C58.864 18.2564 60.9595 16.3581 63.7862 16.3581C66.9524 16.3581 68.7868 18.4095 68.7868 21.7731C68.7868 25.4963 66.6586 27.1814 63.845 27.1814C60.8747 27.1814 58.864 25.3098 58.864 21.7731ZM66.4562 21.7731C66.4562 19.3953 65.3856 18.3363 63.7862 18.3363C62.337 18.3363 61.175 19.4419 61.175 21.7731C61.175 24.1043 62.3631 25.2099 63.9037 25.2099C65.4444 25.2099 66.4562 24.1176 66.4562 21.7731Z" fill="#1D1D1D"/>
<path d="M78.566 26.582C77.7095 27.0286 76.7521 27.2355 75.7916 27.1814C72.6581 27.1814 70.5691 25.3431 70.5691 21.9063C70.5691 18.303 72.632 16.3581 75.9874 16.3581C76.8818 16.337 77.7709 16.5048 78.5987 16.851L78.1156 18.7359C77.5374 18.5436 76.9349 18.4381 76.3269 18.4229C74.3032 18.4229 72.9257 19.4552 72.9257 21.7531C72.9257 23.9644 74.2314 25.0833 76.3138 25.0833C76.9374 25.0628 77.5523 24.9274 78.1287 24.6837L78.566 26.582Z" fill="#1D1D1D"/>
<path d="M86.6087 24.2108H82.2544L81.2622 27.0016H79.9565L83.8734 16.538H85.179L89.0176 27.0016H87.6401L86.6087 24.2108ZM82.6527 22.9853H86.1713L84.461 18.0632H84.4022L82.6527 22.9853Z" fill="#1D1D1D"/>
<path d="M93.548 27.0016H92.2424V17.7968H89.2068V16.538H96.5901V17.7968H93.548V27.0016Z" fill="#1D1D1D"/>
<path d="M97.9741 21.7731C97.9741 18.4428 99.8673 16.3914 102.544 16.3914C105.592 16.3914 107.231 18.6027 107.231 21.7731C107.231 25.3298 105.273 27.1547 102.59 27.1547C99.7759 27.1547 97.9741 25.09 97.9741 21.7731ZM105.86 21.7731C105.86 18.9024 104.6 17.6436 102.596 17.6436C100.794 17.6436 99.4038 18.9757 99.4038 21.7731C99.4038 24.5705 100.749 25.8959 102.772 25.8959C104.672 25.8959 105.86 24.4772 105.86 21.7731Z" fill="#1D1D1D"/>
<path d="M120 27.0016H118.694L118.042 18.8292L115.43 27.0016H114.053L111.481 18.8558L110.828 27.0016H109.522L110.397 16.538H112.01L114.778 25.5363L117.506 16.538H119.119L120 27.0016Z" fill="#1D1D1D"/>
</g>
<defs>
<radialGradient id="paint0_radial_2986_18204" cx="0" cy="0" r="1" gradientUnits="userSpaceOnUse" gradientTransform="translate(19.8642 18.3547) scale(6.20675 6.33258)">
<stop stop-color="#4495D1"/>
<stop offset="1" stop-color="#15256D"/>
</radialGradient>
<linearGradient id="paint1_linear_2986_18204" x1="35.859" y1="3.5718" x2="30.1434" y2="17.6993" gradientUnits="userSpaceOnUse">
<stop stop-color="#4495D1"/>
<stop offset="1" stop-color="#15256D"/>
</linearGradient>
<linearGradient id="paint2_linear_2986_18204" x1="12.0776" y1="22.1474" x2="-2.62841" y2="29.1208" gradientUnits="userSpaceOnUse">
<stop stop-color="#4495D1"/>
<stop offset="1" stop-color="#15256D"/>
</linearGradient>
<linearGradient id="paint3_linear_2986_18204" x1="41.1109" y1="26.2185" x2="25.1078" y2="38.5044" gradientUnits="userSpaceOnUse">
<stop stop-color="#4495D1"/>
<stop offset="1" stop-color="#15256D"/>
</linearGradient>
<linearGradient id="paint4_linear_2986_18204" x1="7.7554" y1="15.9518" x2="16.342" y2="3.03499" gradientUnits="userSpaceOnUse">
<stop stop-color="#4495D1"/>
<stop offset="1" stop-color="#15256D"/>
</linearGradient>
<linearGradient id="paint5_linear_2986_18204" x1="23.5535" y1="34.5878" x2="8.57188" y2="36.0857" gradientUnits="userSpaceOnUse">
<stop stop-color="#4495D1"/>
<stop offset="1" stop-color="#15256D"/>
</linearGradient>
<linearGradient id="paint6_linear_2986_18204" x1="33.1954" y1="12.4884" x2="36.364" y2="28.1895" gradientUnits="userSpaceOnUse">
<stop stop-color="#4495D1"/>
<stop offset="1" stop-color="#15256D"/>
</linearGradient>
<clipPath id="clip0_2986_18204">
<rect width="120" height="43" fill="white"/>
</clipPath>
</defs>
</svg>

<svg width="120" height="43" viewBox="0 0 120 43" fill="none" xmlns="http://www.w3.org/2000/svg"><g clip-path="url(#clip0_2986_18204)"><path d="M24.52 24.564a4.404 4.404 0 01-2.2 1.346 4.336 4.336 0 01-2.562-.127 4.428 4.428 0 01-2.061-1.558 4.58 4.58 0 01-.246-5.002 4.453 4.453 0 011.898-1.76 4.341 4.341 0 012.537-.388c.864.13 1.672.517 2.32 1.115a4.5 4.5 0 011.033 1.412 4.579 4.579 0 01-.72 4.962z" fill="url(#paint0_radial_2986_18204)"/><path d="M24.52 24.564a4.404 4.404 0 01-2.2 1.346 4.336 4.336 0 01-2.562-.127 4.428 4.428 0 01-2.061-1.558 4.58 4.58 0 01-.246-5.002 4.453 4.453 0 011.898-1.76 4.341 4.341 0 012.537-.388c.864.13 1.672.517 2.32 1.115a4.5 4.5 0 011.033 1.412 4.579 4.579 0 01-.72 4.962z" fill="#1D1D1D"/><path d="M22.398 6.088c.366.373.712.752 1.018 1.132a17.79 17.79 0 012.612 4.303c1.047.199 2.114.275 3.179.226h.359a12.023 12.023 0 007.644-3.756l.268-.28a21.65 21.65 0 00-1.267-1.432C32.617 2.625 27.852.412 22.79.045A20.841 20.841 0 008.637 4.283c6.463-3.21 10.947-1 13.761 1.805z" fill="url(#paint1_linear_2986_18204)"/><path d="M22.398 6.088c.366.373.712.752 1.018 1.132a17.79 17.79 0 012.612 4.303c1.047.199 2.114.275 3.179.226h.359a12.023 12.023 0 007.644-3.756l.268-.28a21.65 21.65 0 00-1.267-1.432C32.617 2.625 27.852.412 22.79.045A20.841 20.841 0 008.637 4.283c6.463-3.21 10.947-1 13.761 1.805z" fill="#323232"/><path d="M7.436 27.974c.13-.513.28-1.006.444-1.465a18.002 18.002 0 012.35-4.456 14.105 14.105 0 00-1.397-2.918l-.105-.166-.098-.14a12.1 12.1 0 00-6.952-4.842l-.372-.113c-.216.6-.412 1.205-.581 1.831a21.965 21.965 0 001.408 14.977c2.216 4.658 6 8.347 10.662 10.393-5.973-4.13-6.345-9.218-5.36-13.101z" fill="url(#paint2_linear_2986_18204)"/><path d="M7.436 27.974c.13-.513.28-1.006.444-1.465a18.002 18.002 0 012.35-4.456 14.105 14.105 0 00-1.397-2.918l-.105-.166-.098-.14a12.1 12.1 0 00-6.952-4.842l-.372-.113c-.216.6-.412 1.205-.581 1.831a21.965 21.965 0 001.408 14.977c2.216 4.658 6 8.347 10.662 10.393-5.973-4.13-6.345-9.218-5.36-13.101z" fill="#323232"/><path d="M33.555 30.285c-.503.14-1 .253-1.476.34a17.107 17.107 0 01-4.954.146 13.99 13.99 0 00-1.776 2.665c0 .06-.059.113-.085.173-.027.052-.05.105-.072.16a12.546 12.546 0 00-.653 8.578c0 .127.072.253.111.38a22.87 22.87 0 001.848-.4c4.892-1.35 9.145-4.448 11.987-8.729a21.92 21.92 0 003.498-14.596c-.523 7.347-4.655 10.21-8.428 11.283z" fill="url(#paint3_linear_2986_18204)"/><path d="M33.555 30.285c-.503.14-1 .253-1.476.34a17.107 17.107 0 01-4.954.146 13.99 13.99 0 00-1.776 2.665c0 .06-.059.113-.085.173-.027.052-.05.105-.072.16a12.546 12.546 0 00-.653 8.578c0 .127.072.253.111.38a22.87 22.87 0 001.848-.4c4.892-1.35 9.145-4.448 11.987-8.729a21.92 21.92 0 003.498-14.596c-.523 7.347-4.655 10.21-8.428 11.283z" fill="#323232"/><path d="M8.604 4.283a20.328 20.328 0 00-6.979 8.812 12.53 12.53 0 015.846 3.037 12.904 12.904 0 013.562 5.621c.58-.38 2.37-1.825 3.57-5.794 1.456-4.803 4.211-8.346 7.795-9.891 0 .02-4.537-6.568-13.794-1.785z" fill="url(#paint4_linear_2986_18204)"/><path d="M8.604 4.283a20.328 20.328 0 00-6.979 8.812 12.53 12.53 0 015.846 3.037 12.904 12.904 0 013.562 5.621c.58-.38 2.37-1.825 3.57-5.794 1.456-4.803 4.211-8.346 7.795-9.891 0 .02-4.537-6.568-13.794-1.785z" fill="#1D1D1D"/><path d="M23.136 38.857a12.994 12.994 0 013.31-8.692l.032-.046c-.437-.473-1.958-1.632-5.875-.726-4.772 1.112-10.073.985-13.167-1.419 0 0-3.33 7.326 5.36 13.088a19.61 19.61 0 0010.953 1.765 12.516 12.516 0 01-.613-3.97z" fill="url(#paint5_linear_2986_18204)"/><path d="M23.136 38.857a12.994 12.994 0 013.31-8.692l.032-.046c-.437-.473-1.958-1.632-5.875-.726-4.772 1.112-10.073.985-13.167-1.419 0 0-3.33 7.326 5.36 13.088a19.61 19.61 0 0010.953 1.765 12.516 12.516 0 01-.613-3.97z" fill="#1D1D1D"/><path d="M37.994 8.432a12.503 12.503 0 01-4.219 3.187 12.274 12.274 0 01-5.13 1.136 13.448 13.448 0 01-2.774-.3h-.046c-.183.666-.326 2.564 2.318 5.468 3.349 3.69 5.875 8.433 5.411 12.369 0 0 7.834-.713 8.428-11.283a20.638 20.638 0 00-3.988-10.577z" fill="url(#paint6_linear_2986_18204)"/><path d="M37.994 8.432a12.503 12.503 0 01-4.219 3.187 12.274 12.274 0 01-5.13 1.136 13.448 13.448 0 01-2.774-.3h-.046c-.183.666-.326 2.564 2.318 5.468 3.349 3.69 5.875 8.433 5.411 12.369 0 0 7.834-.713 8.428-11.283a20.638 20.638 0 00-3.988-10.577zm13.735 18.57h-2.2V16.538h3.531c2.612 0 4.205 1.092 4.205 3.497 0 2.404-1.672 3.696-4.387 3.696h-1.15v3.27zm-.046-5.249h1.195c1.305 0 2.108-.52 2.108-1.625 0-1.106-.737-1.612-2.108-1.612h-1.195v3.237zm7.181.02c0-3.517 2.096-5.415 4.922-5.415 3.166 0 5 2.052 5 5.415 0 3.723-2.127 5.408-4.941 5.408-2.97 0-4.981-1.871-4.981-5.408zm7.592 0c0-2.378-1.07-3.437-2.67-3.437-1.449 0-2.611 1.106-2.611 3.437 0 2.331 1.188 3.437 2.729 3.437 1.54 0 2.552-1.092 2.552-3.437zm12.11 4.809a5.347 5.347 0 01-2.774.6c-3.134 0-5.223-1.839-5.223-5.276 0-3.603 2.063-5.548 5.418-5.548a6.376 6.376 0 012.612.493l-.483 1.885a6.154 6.154 0 00-1.79-.313c-2.023 0-3.4 1.032-3.4 3.33 0 2.211 1.305 3.33 3.388 3.33a5.089 5.089 0 001.815-.4l.437 1.899zm8.043-2.372h-4.355l-.992 2.792h-1.305l3.916-10.464h1.306l3.839 10.464H87.64l-1.03-2.792zm-3.956-1.225h3.518l-1.71-4.922h-.059l-1.75 4.922zm10.895 4.017h-1.306v-9.205h-3.035v-1.259h7.383v1.259h-3.042v9.205zm4.426-5.229c0-3.33 1.893-5.382 4.57-5.382 3.048 0 4.687 2.212 4.687 5.382 0 3.557-1.958 5.382-4.641 5.382-2.814 0-4.616-2.065-4.616-5.382zm7.886 0c0-2.87-1.26-4.13-3.264-4.13-1.802 0-3.192 1.333-3.192 4.13 0 2.797 1.345 4.123 3.368 4.123 1.9 0 3.088-1.419 3.088-4.123zM120 27.002h-1.306l-.652-8.173-2.612 8.173h-1.377l-2.572-8.146-.653 8.146h-1.306l.875-10.464h1.613l2.768 8.998 2.728-8.998h1.613L120 27.002z" fill="#1D1D1D"/></g><defs><linearGradient id="paint1_linear_2986_18204" x1="35.859" y1="3.572" x2="30.143" y2="17.699" gradientUnits="userSpaceOnUse"><stop stop-color="#4495D1"/><stop offset="1" stop-color="#15256D"/></linearGradient><linearGradient id="paint2_linear_2986_18204" x1="12.078" y1="22.147" x2="-2.628" y2="29.121" gradientUnits="userSpaceOnUse"><stop stop-color="#4495D1"/><stop offset="1" stop-color="#15256D"/></linearGradient><linearGradient id="paint3_linear_2986_18204" x1="41.111" y1="26.218" x2="25.108" y2="38.504" gradientUnits="userSpaceOnUse"><stop stop-color="#4495D1"/><stop offset="1" stop-color="#15256D"/></linearGradient><linearGradient id="paint4_linear_2986_18204" x1="7.755" y1="15.952" x2="16.342" y2="3.035" gradientUnits="userSpaceOnUse"><stop stop-color="#4495D1"/><stop offset="1" stop-color="#15256D"/></linearGradient><linearGradient id="paint5_linear_2986_18204" x1="23.553" y1="34.588" x2="8.572" y2="36.086" gradientUnits="userSpaceOnUse"><stop stop-color="#4495D1"/><stop offset="1" stop-color="#15256D"/></linearGradient><linearGradient id="paint6_linear_2986_18204" x1="33.195" y1="12.488" x2="36.364" y2="28.189" gradientUnits="userSpaceOnUse"><stop stop-color="#4495D1"/><stop offset="1" stop-color="#15256D"/></linearGradient><radialGradient id="paint0_radial_2986_18204" cx="0" cy="0" r="1" gradientUnits="userSpaceOnUse" gradientTransform="matrix(6.20675 0 0 6.33258 19.864 18.355)"><stop stop-color="#4495D1"/><stop offset="1" stop-color="#15256D"/></radialGradient><clipPath id="clip0_2986_18204"><path fill="#fff" d="M0 0h120v43H0z"/></clipPath></defs></svg>
